img/yt.svg

<svg width="21" height="21" viewBox="0 0 21 21" fill="none" xmlns="http://www.w3.org/2000/svg">
<path d="M11.0737 20.9993H9.92545C9.85238 20.986 9.77989 20.9697 9.70682 20.9593C9.25391 20.8961 8.79521 20.8625 8.34983 20.7668C5.79823 20.2188 3.71055 18.9111 2.13957 16.8274C0.283859 14.3675 -0.361001 11.5897 0.190494 8.56429C0.672399 5.9199 2.01721 3.76785 4.15708 2.14527C6.54167 0.337105 9.24406 -0.317614 12.1935 0.141675C14.3618 0.478603 16.2378 1.44009 17.8088 2.97222C19.5021 4.62458 20.5252 6.62353 20.8782 8.96907C20.9252 9.2857 20.96 9.60407 21 9.92128V11.0701C20.9542 11.4348 20.9211 11.8014 20.8608 12.1632C20.4618 14.5478 19.3803 16.5705 17.6052 18.2117C16.0644 19.6545 14.1149 20.5853 12.0241 20.8764C11.7081 20.9239 11.3897 20.9593 11.0737 20.9993ZM10.5199 6.54621C9.34438 6.54621 8.16832 6.52591 6.99342 6.552C6.45991 6.55814 5.94988 6.77233 5.57196 7.14895C5.19404 7.52558 4.97809 8.03487 4.97012 8.56835C4.9446 9.85305 4.9446 11.1381 4.97012 12.4236C4.97793 12.9535 5.19087 13.4598 5.56418 13.8361C5.93749 14.2123 6.4421 14.4292 6.97197 14.4411C7.98275 14.4684 8.99469 14.4527 10.0061 14.4527C11.3399 14.4527 12.6736 14.4695 14.004 14.4417C14.5413 14.4359 15.0549 14.219 15.4338 13.8379C15.8127 13.4567 16.0265 12.9419 16.029 12.4045C16.0514 11.1333 16.0514 9.86194 16.029 8.59039C16.0263 8.05321 15.8128 7.53858 15.4343 7.15732C15.0559 6.77606 14.5428 6.55869 14.0057 6.552C12.8447 6.52591 11.6826 6.54621 10.5199 6.54621Z" fill="#DD3737"/>
<path d="M11.9438 10.4966L9.07031 12.1691V8.82532L11.9438 10.4966Z" fill="#DD3737"/>
</svg>

<svg width="21" height="21" fill="none" xmlns="http://www.w3.org/2000/svg"><path d="M11.074 21H9.925c-.073-.014-.145-.03-.218-.04-.453-.064-.912-.098-1.357-.193-2.552-.548-4.64-1.856-6.21-3.94C.284 14.367-.361 11.59.19 8.564.672 5.92 2.017 3.768 4.157 2.145 6.542.337 9.244-.318 12.194.142c2.168.337 4.044 1.298 5.615 2.83 1.693 1.653 2.716 3.652 3.07 5.997.046.317.081.635.121.952v1.15c-.046.364-.079.73-.14 1.092-.398 2.385-1.48 4.407-3.255 6.049a10.229 10.229 0 01-5.58 2.664c-.317.048-.635.083-.951.123zM10.52 6.545c-1.176 0-2.352-.02-3.527.006A2.047 2.047 0 004.97 8.568a97.077 97.077 0 000 3.856 2.049 2.049 0 002.002 2.017c1.01.027 2.023.012 3.034.012 1.334 0 2.668.017 3.998-.011a2.048 2.048 0 002.025-2.037c.022-1.272.022-2.543 0-3.815a2.049 2.049 0 00-2.023-2.038c-1.161-.026-2.323-.006-3.486-.006z" fill="#DD3737"/><path d="M11.944 10.497L9.07 12.169V8.825l2.874 1.672z" fill="#DD3737"/></svg>
